packages/core/src/svgs/rjv.svg

<svg width="24" height="24" viewBox="0 0 24 24" fill="none" xmlns="http://www.w3.org/2000/svg">
<g clip-path="url(#clip0_31_17360)">
<path d="M0 0H24V24H0V0Z" fill="#F0F3FA"/>
<path d="M18.5828 11.1431C18.4971 11.1431 18.4071 11.1602 18.3257 11.1902C17.5463 10.8568 16.7045 10.6946 15.8571 10.7145C14.4814 10.7145 13.1657 11.1731 11.9999 12.1288C10.9207 11.2182 9.55489 10.7174 8.1428 10.7145C7.33709 10.7145 6.50995 10.8217 5.6828 11.1902C5.59929 11.1586 5.51067 11.1427 5.42138 11.1431C5.04852 11.1431 4.71423 11.3831 4.71423 11.7517C4.71423 12.1202 5.03138 12.4202 5.39995 12.4288C5.74281 12.4374 6.05566 12.1974 6.11995 11.8631C7.9628 10.9331 9.7928 11.4131 11.4128 12.7717C10.6866 13.6992 10.29 14.8422 10.2857 16.0202C10.2985 17.4002 10.9499 18.6217 11.9999 19.7145C13.0285 18.566 13.7014 17.3402 13.7142 16.0202C13.7228 15.086 13.3671 14.1002 12.7199 13.0631C12.5172 13.2795 12.3377 13.5165 12.1842 13.7702C12.6128 14.546 12.8699 15.296 12.8571 16.0202C12.8399 16.8645 12.4714 17.666 11.9957 18.4288C11.4192 17.7614 11.1148 16.9017 11.1428 16.0202C11.1784 14.7908 11.6974 13.6251 12.5871 12.776C14.2028 11.4174 16.0371 10.9288 17.8799 11.8588C17.9357 12.1802 18.2228 12.416 18.5528 12.4288C18.9385 12.446 19.2985 12.2102 19.2814 11.8117C19.2697 11.6338 19.1921 11.4666 19.0636 11.343C18.9352 11.2193 18.7653 11.148 18.5871 11.1431H18.5828Z" fill="#04BFBF"/>
<path d="M18.0001 9.24411C18.0001 9.10268 17.9572 8.96983 17.8715 8.8584C17.7858 8.74268 17.6572 8.65697 17.5201 8.60983C17.3829 8.56697 17.2286 8.5584 17.0915 8.59697C16.9458 8.63983 16.8172 8.71697 16.7272 8.82411C15.0902 8.62493 13.4325 8.95855 12.0001 9.77554C10.5858 8.96125 8.91434 8.62697 7.26863 8.82411C7.14005 8.67411 6.95148 8.57983 6.74577 8.57125C6.32577 8.54983 5.96577 8.89697 5.99577 9.29126C6.02577 9.64697 6.3472 9.91697 6.72005 9.91697C6.96005 9.91268 7.19577 9.7884 7.32005 9.59125C8.14291 9.47983 8.97863 9.5184 9.78005 9.71125C10.5815 9.90411 11.3358 10.247 11.9958 10.7141C13.359 9.77199 15.0251 9.37307 16.6672 9.59554C16.7494 9.71579 16.8651 9.80918 17 9.86406C17.1349 9.91894 17.283 9.93287 17.4258 9.90411C17.5243 9.88268 17.6186 9.84411 17.6958 9.79268L17.7258 9.80126L17.7129 9.77983C17.8007 9.72093 17.8725 9.64115 17.9219 9.54765C17.9713 9.45414 17.9967 9.34984 17.9958 9.24411H18.0001Z" fill="#04BFBF"/>
<path d="M14.7428 6.85698C14.4986 6.85698 14.2628 6.99412 14.1428 7.20841C13.3875 7.37393 12.6639 7.66049 12 8.05698C11.3361 7.66055 10.6125 7.374 9.85713 7.20841C9.73713 6.99412 9.5057 6.86126 9.2657 6.85698C8.89713 6.85269 8.57141 7.15698 8.57141 7.52984C8.57141 7.88984 8.87141 8.19841 9.2357 8.20698C9.43713 8.21126 9.64284 8.12126 9.7757 7.96698C10.5814 8.15984 11.3357 8.51126 12 8.99984C12.6641 8.50991 13.4208 8.15998 14.2243 7.97126C14.3528 8.12126 14.5457 8.20698 14.7428 8.21126C15.1071 8.21126 15.4243 7.90269 15.4286 7.54269C15.4328 7.17412 15.1157 6.85698 14.7428 6.85698Z" fill="#04BFBF"/>
<path d="M12 6.85735C12.2273 6.85735 12.4453 6.76705 12.6061 6.6063C12.7668 6.44556 12.8571 6.22754 12.8571 6.00021C12.8571 5.77288 12.7668 5.55486 12.6061 5.39412C12.4453 5.23337 12.2273 5.14307 12 5.14307C11.7726 5.14307 11.5546 5.23337 11.3939 5.39412C11.2331 5.55486 11.1428 5.77288 11.1428 6.00021C11.1428 6.22754 11.2331 6.44556 11.3939 6.6063C11.5546 6.76705 11.7726 6.85735 12 6.85735Z" fill="#04BFBF"/>
</g>
<defs>
<clipPath id="clip0_31_17360">
<rect width="24" height="24" fill="white"/>
</clipPath>
</defs>
</svg>

<svg xmlns="http://www.w3.org/2000/svg" width="24" height="24" fill="none" viewBox="0 0 24 24"><g clip-path="url(#a)"><path fill="#F0F3FA" d="M0 0h24v24H0z"/><path fill="#04BFBF" d="M18.583 11.143a.8.8 0 0 0-.257.047 5.9 5.9 0 0 0-2.469-.476c-1.376 0-2.691.46-3.857 1.415a6 6 0 0 0-3.857-1.415c-.806 0-1.633.108-2.46.476a.7.7 0 0 0-.262-.047c-.372 0-.707.24-.707.609 0 .368.317.668.686.677a.715.715 0 0 0 .72-.566c1.843-.93 3.673-.45 5.293.909a5.3 5.3 0 0 0-1.127 3.248c.013 1.38.664 2.602 1.714 3.695 1.028-1.149 1.701-2.375 1.714-3.695.009-.934-.347-1.92-.994-2.957a4.3 4.3 0 0 0-.536.707c.429.776.686 1.526.673 2.25-.017.845-.386 1.646-.861 2.409a3.51 3.51 0 0 1-.853-2.409 4.67 4.67 0 0 1 1.444-3.244c1.616-1.359 3.45-1.847 5.293-.917a.705.705 0 0 0 .673.57c.386.017.745-.219.728-.617a.715.715 0 0 0-.694-.669z"/><path fill="#04BFBF" d="M18 9.244a.62.62 0 0 0-.128-.386.74.74 0 0 0-.78-.261.75.75 0 0 0-.365.227A7.67 7.67 0 0 0 12 9.776a7.68 7.68 0 0 0-4.731-.952.73.73 0 0 0-.523-.253c-.42-.021-.78.326-.75.72.03.356.351.626.724.626a.73.73 0 0 0 .6-.326 6.7 6.7 0 0 1 2.46.12 6.5 6.5 0 0 1 2.216 1.003 6.65 6.65 0 0 1 4.671-1.118.74.74 0 0 0 1.029.197l.03.008-.013-.021a.64.64 0 0 0 .283-.536z"/><path fill="#04BFBF" d="M14.743 6.857a.7.7 0 0 0-.6.351A7.2 7.2 0 0 0 12 8.057a7.2 7.2 0 0 0-2.143-.849.7.7 0 0 0-.591-.351.69.69 0 0 0-.695.673c0 .36.3.668.665.677a.7.7 0 0 0 .54-.24C10.58 8.16 11.336 8.511 12 9c.664-.49 1.42-.84 2.224-1.029.129.15.322.236.519.24a.696.696 0 0 0 .686-.668.693.693 0 0 0-.686-.686"/><path fill="#04BFBF" d="M12 6.857a.857.857 0 1 0 0-1.714.857.857 0 0 0 0 1.714"/></g><defs><clipPath id="a"><path fill="#fff" d="M0 0h24v24H0z"/></clipPath></defs></svg>
